img/iconsfont/share.svg

<svg width="18" height="20" viewBox="0 0 18 20" fill="none" xmlns="http://www.w3.org/2000/svg">
<path d="M15 14C14.212 14 13.5 14.31 12.966 14.807L5.91 10.7C5.96 10.47 6 10.24 6 10C6 9.76 5.96 9.53 5.91 9.3L12.96 5.19C13.5 5.69 14.21 6 15 6C16.66 6 18 4.66 18 3C18 1.34 16.66 0 15 0C13.34 0 12 1.34 12 3C12 3.24 12.04 3.47 12.09 3.7L5.04 7.81C4.5 7.31 3.79 7 3 7C1.34 7 0 8.34 0 10C0 11.66 1.34 13 3 13C3.79 13 4.5 12.69 5.04 12.19L12.088 16.308C12.0317 16.5344 12.0022 16.7667 12 17C12 17.5933 12.1759 18.1734 12.5056 18.6667C12.8352 19.1601 13.3038 19.5446 13.8519 19.7716C14.4001 19.9987 15.0033 20.0581 15.5853 19.9424C16.1672 19.8266 16.7018 19.5409 17.1213 19.1213C17.5409 18.7018 17.8266 18.1672 17.9424 17.5853C18.0581 17.0033 17.9987 16.4001 17.7716 15.8519C17.5446 15.3038 17.1601 14.8352 16.6667 14.5056C16.1734 14.1759 15.5933 14 15 14Z" fill="white"/>
</svg>

<svg width="18" height="20" fill="none" xmlns="http://www.w3.org/2000/svg"><path d="M15 14c-.788 0-1.5.31-2.034.807L5.91 10.7c.05-.23.09-.46.09-.7 0-.24-.04-.47-.09-.7l7.05-4.11c.54.5 1.25.81 2.04.81 1.66 0 3-1.34 3-3s-1.34-3-3-3-3 1.34-3 3c0 .24.04.47.09.7L5.04 7.81C4.5 7.31 3.79 7 3 7c-1.66 0-3 1.34-3 3s1.34 3 3 3c.79 0 1.5-.31 2.04-.81l7.048 4.118A2.984 2.984 0 0012 17a3 3 0 103-3z" fill="#fff"/></svg>
